assets/svg/action_wallet_delete.svg

<svg width="80" height="80" viewBox="0 0 80 80" fill="none" xmlns="http://www.w3.org/2000/svg">
<path d="M67.8019 45.2432H55.3108C54.3913 45.2432 53.5095 45.6084 52.8593 46.2586C52.2091 46.9088 51.8438 47.7906 51.8438 48.7101V53.6301C51.8438 54.5496 52.2091 55.4314 52.8593 56.0815C53.5095 56.7317 54.3913 57.0969 55.3108 57.0969H67.8019L72.4698 55.098V43.2441L67.8019 45.2432ZM55.8647 52.5627C55.5892 52.5628 55.32 52.4811 55.0909 52.3281C54.8619 52.1751 54.6834 51.9576 54.5779 51.7031C54.4725 51.4487 54.4449 51.1686 54.4986 50.8985C54.5523 50.6283 54.685 50.3802 54.8797 50.1854C55.0745 49.9906 55.3226 49.8579 55.5928 49.8042C55.8629 49.7504 56.143 49.778 56.3974 49.8834C56.6519 49.9888 56.8694 50.1673 57.0225 50.3963C57.1755 50.6254 57.2572 50.8946 57.2572 51.1701C57.2572 51.5394 57.1105 51.8936 56.8493 52.1548C56.5882 52.4159 56.234 52.5627 55.8647 52.5627ZM68.3488 53.929C68.3488 54.074 68.2911 54.2131 68.1886 54.3157C68.086 54.4182 67.9469 54.4759 67.8019 54.4759C67.6568 54.4759 67.5177 54.4182 67.4152 54.3157C67.3126 54.2131 67.255 54.074 67.255 53.929V48.4112C67.255 48.2661 67.3126 48.127 67.4152 48.0245C67.5177 47.9219 67.6568 47.8643 67.8019 47.8643C67.9469 47.8643 68.086 47.9219 68.1886 48.0245C68.2911 48.127 68.3488 48.2661 68.3488 48.4112V53.929Z" fill="#E1EAF8"/>
<path d="M20.7898 25.8399L48.8227 13.2207L42.6398 4.94097C42.5299 4.79373 42.392 4.66959 42.2341 4.57563C42.0762 4.48167 41.9013 4.41974 41.7194 4.39338C41.5376 4.36702 41.3523 4.37673 41.1742 4.42198C40.9961 4.46722 40.8286 4.54711 40.6814 4.65707L12.3164 25.8399H20.7898Z" fill="#FD4E4E"/>
<path d="M35.5 6L30.143 2.1736C29.2382 1.52725 27.9798 1.74314 27.3421 2.65414L11 26" stroke="#9A9A9A" stroke-width="1.4" stroke-linecap="round" stroke-linejoin="round"/>
<path d="M62.5 26L56.3172 12.3095C55.8649 11.308 54.6894 10.859 53.6846 11.304L20.5 26" stroke="#9A9A9A" stroke-width="1.4" stroke-linecap="round" stroke-linejoin="round"/>
<path d="M14.5 21H10C9.16667 21 7.5 21.5 7.5 23.5M7.5 23.5C7.5 25.5 9.16667 26 10 26H64C65.3333 26 68 26.8 68 30C68 33.2 68 40.3333 68 43.5M7.5 23.5V55.5M30.5 76.5H64C65.3333 76.1667 68 75 68 73C68 71 68 63.1667 68 59.5" stroke="#9A9A9A" stroke-width="1.4" stroke-linecap="round" stroke-linejoin="round"/>
<path d="M64 20.9992C66.8333 20.8326 72.5 21.9992 72.5 27.9992C72.5 33.9992 72.5 56.8324 72.5 67.499C72.3333 69.1657 71.2 72.499 68 72.499" stroke="#9A9A9A" stroke-width="1.4" stroke-linecap="round" stroke-linejoin="round"/>
<path d="M31.466 40.2016V37.8595C31.4654 37.3241 31.2524 36.8108 30.8738 36.4322C30.4952 36.0536 29.9819 35.8407 29.4465 35.8401H16.4748C15.9393 35.8407 15.426 36.0537 15.0474 36.4323C14.6688 36.8109 14.4559 37.3242 14.4552 37.8596V40.2016C14.4559 40.7371 14.6688 41.2504 15.0474 41.629C15.426 42.0076 15.9393 42.2205 16.4748 42.2212H29.4465C29.9819 42.2205 30.4952 42.0076 30.8738 41.629C31.2524 41.2504 31.4654 40.7371 31.466 40.2016ZM15.5488 40.2016V37.8595C15.5492 37.614 15.6468 37.3787 15.8204 37.2052C15.994 37.0317 16.2293 36.9341 16.4748 36.9338H19.8201C19.2567 37.2731 18.7907 37.7522 18.4673 38.3248C18.1438 38.8974 17.974 39.5439 17.9743 40.2015C17.9739 40.5387 18.0898 40.8657 18.3024 41.1274H16.4748C16.2293 41.1271 15.994 41.0295 15.8205 40.8559C15.6469 40.6824 15.5491 40.4471 15.5488 40.2016ZM13.717 31.9355H17.6066C17.7517 31.9355 17.8908 31.8779 17.9933 31.7754C18.0959 31.6728 18.1535 31.5337 18.1535 31.3887C18.1535 31.2436 18.0959 31.1045 17.9933 31.002C17.8908 30.8994 17.7517 30.8418 17.6066 30.8418H13.7168C13.5718 30.8418 13.4327 30.8994 13.3301 31.002C13.2275 31.1045 13.1699 31.2436 13.1699 31.3887C13.1699 31.5337 13.2275 31.6728 13.3301 31.7754C13.4327 31.8779 13.5719 31.9355 13.717 31.9355ZM26.4084 31.9355C26.5534 31.9355 26.6925 31.8779 26.7951 31.7754C26.8976 31.6728 26.9552 31.5337 26.9552 31.3887C26.9552 31.2436 26.8976 31.1045 26.7951 31.002C26.6925 30.8994 26.5534 30.8418 26.4084 30.8418H22.5185C22.3735 30.8418 22.2344 30.8994 22.1318 31.002C22.0293 31.1045 21.9716 31.2436 21.9716 31.3887C21.9716 31.5337 22.0293 31.6728 22.1318 31.7754C22.2344 31.8779 22.3735 31.9355 22.5185 31.9355H26.4084ZM35.2099 30.8418H31.3201C31.175 30.8418 31.0359 30.8994 30.9334 31.002C30.8308 31.1045 30.7732 31.2436 30.7732 31.3887C30.7732 31.5337 30.8308 31.6728 30.9334 31.7754C31.0359 31.8779 31.175 31.9355 31.3201 31.9355H35.2099C35.355 31.9355 35.4941 31.8779 35.5966 31.7754C35.6992 31.6728 35.7568 31.5337 35.7568 31.3887C35.7568 31.2436 35.6992 31.1045 35.5966 31.002C35.4941 30.8994 35.355 30.8418 35.2099 30.8418ZM44.0116 30.8418H40.1216C39.9766 30.8418 39.8375 30.8994 39.7349 31.002C39.6324 31.1045 39.5748 31.2436 39.5748 31.3887C39.5748 31.5337 39.6324 31.6728 39.7349 31.7754C39.8375 31.8779 39.9766 31.9355 40.1216 31.9355H44.0116C44.1567 31.9355 44.2958 31.8779 44.3983 31.7754C44.5009 31.6728 44.5585 31.5337 44.5585 31.3887C44.5585 31.2436 44.5009 31.1045 44.3983 31.002C44.2958 30.8994 44.1567 30.8418 44.0116 30.8418ZM52.8132 30.8418H48.9232C48.7782 30.8418 48.6391 30.8994 48.5365 31.002C48.4339 31.1045 48.3763 31.2436 48.3763 31.3887C48.3763 31.5337 48.4339 31.6728 48.5365 31.7754C48.6391 31.8779 48.7782 31.9355 48.9232 31.9355H52.813C52.9581 31.9355 53.0972 31.8779 53.1997 31.7754C53.3023 31.6728 53.3599 31.5337 53.3599 31.3887C53.3599 31.2436 53.3023 31.1045 53.1997 31.002C53.0972 30.8994 52.9582 30.8418 52.8132 30.8418ZM61.6148 30.8418H57.7248C57.5797 30.8418 57.4406 30.8994 57.3381 31.002C57.2355 31.1045 57.1779 31.2436 57.1779 31.3887C57.1779 31.5337 57.2355 31.6728 57.3381 31.7754C57.4406 31.8779 57.5797 31.9355 57.7248 31.9355H61.6146C61.7596 31.9355 61.8988 31.8779 62.0013 31.7754C62.1039 31.6728 62.1615 31.5337 62.1615 31.3887C62.1615 31.2436 62.1039 31.1045 62.0013 31.002C61.8988 30.8994 61.7598 30.8418 61.6148 30.8418ZM31.3201 71.4987H35.2099C35.355 71.4987 35.4941 71.4411 35.5966 71.3385C35.6992 71.2359 35.7568 71.0968 35.7568 70.9518C35.7568 70.8068 35.6992 70.6677 35.5966 70.5651C35.4941 70.4625 35.355 70.4049 35.2099 70.4049H31.3201C31.175 70.4049 31.0359 70.4625 30.9334 70.5651C30.8308 70.6677 30.7732 70.8068 30.7732 70.9518C30.7732 71.0968 30.8308 71.2359 30.9334 71.3385C31.0359 71.4411 31.175 71.4987 31.3201 71.4987ZM44.0116 70.4049H40.1216C39.9766 70.4049 39.8375 70.4625 39.7349 70.5651C39.6324 70.6677 39.5748 70.8068 39.5748 70.9518C39.5748 71.0968 39.6324 71.2359 39.7349 71.3385C39.8375 71.4411 39.9766 71.4987 40.1216 71.4987H44.0116C44.1567 71.4987 44.2958 71.4411 44.3983 71.3385C44.5009 71.2359 44.5585 71.0968 44.5585 70.9518C44.5585 70.8068 44.5009 70.6677 44.3983 70.5651C44.2958 70.4625 44.1567 70.4049 44.0116 70.4049ZM52.8132 70.4049H48.9232C48.7782 70.4049 48.6391 70.4625 48.5365 70.5651C48.4339 70.6677 48.3763 70.8068 48.3763 70.9518C48.3763 71.0968 48.4339 71.2359 48.5365 71.3385C48.6391 71.4411 48.7782 71.4987 48.9232 71.4987H52.813C52.9581 71.4987 53.0972 71.4411 53.1997 71.3385C53.3023 71.2359 53.3599 71.0968 53.3599 70.9518C53.3599 70.8068 53.3023 70.6677 53.1997 70.5651C53.0972 70.4625 52.9582 70.4049 52.8132 70.4049ZM61.6148 70.4049H57.7248C57.5797 70.4049 57.4406 70.4625 57.3381 70.5651C57.2355 70.6677 57.1779 70.8068 57.1779 70.9518C57.1779 71.0968 57.2355 71.2359 57.3381 71.3385C57.4406 71.4411 57.5797 71.4987 57.7248 71.4987H61.6146C61.7596 71.4987 61.8988 71.4411 62.0013 71.3385C62.1039 71.2359 62.1615 71.0968 62.1615 70.9518C62.1615 70.8068 62.1039 70.6677 62.0013 70.5651C61.8988 70.4625 61.7598 70.4049 61.6148 70.4049Z" fill="#9A9A9A"/>
<path d="M56.1679 17.4809C56.3009 17.7797 56.3664 18.1041 56.3597 18.4311C56.3531 18.758 56.2745 19.0795 56.1295 19.3726C55.9845 19.6658 55.7767 19.9233 55.5209 20.127C55.2651 20.3307 54.9675 20.4756 54.6493 20.5512L39.9398 24.05C39.7262 24.1008 39.5047 24.109 39.2879 24.0742C39.0711 24.0394 38.8633 23.9623 38.6763 23.8472C38.4894 23.732 38.3269 23.5812 38.1982 23.4033C38.0696 23.2254 37.9772 23.0239 37.9264 22.8103C37.922 22.7922 37.918 22.7739 37.9143 22.7556C37.8439 22.4082 37.8923 22.0472 38.0517 21.7306C38.211 21.414 38.4722 21.1601 38.7933 21.0098L50.6954 15.4386C51.6782 14.9786 52.8034 14.9278 53.8236 15.2974C54.8437 15.667 55.6753 16.4268 56.1353 17.4095C56.1464 17.4332 56.1573 17.457 56.1679 17.4809Z" fill="#E1EAF8"/>
<path d="M18.6482 62.9201H14.9621C15.109 62.717 15.2287 62.5204 15.3065 62.3771C15.3628 62.2734 15.4725 62.1929 15.6096 62.1719C15.6345 62.1681 15.6686 62.1667 15.8452 62.1667H17.8502C18.0267 62.1667 18.0609 62.1681 18.0858 62.1719C18.2584 62.1983 18.3315 62.2579 18.3764 62.3527C18.3875 62.376 18.4015 62.408 18.4185 62.4467C18.4693 62.5624 18.5463 62.7379 18.6482 62.9201Z" fill="#FD4E4E"/>
<path fill-rule="evenodd" clip-rule="evenodd" d="M17 79C23.6274 79 29 73.6274 29 67C29 60.3726 23.6274 55 17 55C10.3726 55 5 60.3726 5 67C5 73.6274 10.3726 79 17 79ZM15.8165 61.1667C15.6853 61.1666 15.5686 61.1665 15.4582 61.1834C15.0237 61.2499 14.6388 61.5112 14.4278 61.8999C14.3331 62.0742 14.1526 62.3586 13.9464 62.5931C13.8434 62.7103 13.7461 62.8011 13.6619 62.8596C13.5915 62.9085 13.5548 62.918 13.5483 62.9196C13.5476 62.9198 13.5473 62.9199 13.5473 62.92C13.5401 62.9201 13.5298 62.9201 13.5012 62.9201H11.6667C11.3905 62.9201 11.1667 63.144 11.1667 63.4201C11.1667 63.6963 11.3905 63.9201 11.6667 63.9201H22.3333C22.6095 63.9201 22.8333 63.6963 22.8333 63.4201C22.8333 63.144 22.6095 62.9201 22.3333 62.9201H20.1941C20.1622 62.9201 20.1531 62.9201 20.1457 62.9199L20.1337 62.9198C19.9401 62.9197 19.7886 62.8228 19.639 62.6189C19.5153 62.4502 19.4364 62.2727 19.3582 62.0966C19.3326 62.0389 19.307 61.9813 19.28 61.9243C19.0537 61.447 18.6361 61.2445 18.2371 61.1834C18.1267 61.1665 18.01 61.1666 17.8788 61.1667H15.8165ZM13.3332 64.9925C13.3141 64.7171 13.0752 64.5093 12.7998 64.5284C12.5243 64.5476 12.3165 64.7864 12.3357 65.0619L12.6185 69.13C12.6703 69.8756 12.7127 70.4857 12.8125 70.9662C12.9173 71.4705 13.0973 71.8982 13.47 72.2325C13.84 72.5644 14.289 72.7048 14.8111 72.7703C15.3137 72.8334 15.9479 72.8333 16.7302 72.8333H17.2688C18.0512 72.8333 18.6854 72.8334 19.1879 72.7703C19.71 72.7048 20.1591 72.5644 20.5291 72.2325C20.9018 71.8982 21.0818 71.4705 21.1865 70.9662C21.2864 70.4858 21.3288 69.8756 21.3806 69.1301L21.6634 65.0619C21.6826 64.7864 21.4748 64.5476 21.1993 64.5284C20.9238 64.5093 20.685 64.7171 20.6658 64.9925L20.3855 69.025C20.3305 69.815 20.2918 70.3568 20.2074 70.7628C20.1265 71.1527 20.0159 71.3495 19.8613 71.4881C19.7041 71.6292 19.4841 71.7253 19.0634 71.7781C18.6304 71.8324 18.0592 71.8333 17.2352 71.8333H16.7638C15.9398 71.8333 15.3686 71.8324 14.9356 71.7781C14.515 71.7253 14.295 71.6292 14.1377 71.4882C13.9832 71.3495 13.8726 71.1527 13.7916 70.7628C13.7073 70.3568 13.6685 69.815 13.6136 69.025L13.3332 64.9925ZM15.973 66.4366C15.9444 66.1619 15.6985 65.9625 15.4239 65.9911C15.1492 66.0198 14.9498 66.2656 14.9784 66.5403L15.2832 69.4627C15.3118 69.7374 15.5577 69.9368 15.8323 69.9082C16.107 69.8795 16.3064 69.6337 16.2778 69.359L15.973 66.4366ZM19.0206 66.5403C19.0493 66.2656 18.8498 66.0198 18.5752 65.9911C18.3005 65.9625 18.0547 66.1619 18.026 66.4366L17.7213 69.359C17.6926 69.6337 17.8921 69.8795 18.1667 69.9082C18.4414 69.9368 18.6872 69.7374 18.7159 69.4627L19.0206 66.5403Z" fill="#FD4E4E"/>
</svg>

<svg xmlns="http://www.w3.org/2000/svg" width="80" height="80" fill="none"><path fill="#E1EAF8" d="M67.802 45.243H55.31a3.467 3.467 0 0 0-3.467 3.467v4.92a3.467 3.467 0 0 0 3.467 3.467H67.8l4.669-1.999V43.244zm-11.937 7.32a1.392 1.392 0 1 1-.001-2.785 1.392 1.392 0 0 1 0 2.785m12.484 1.366a.547.547 0 0 1-1.094 0v-5.518a.547.547 0 1 1 1.094 0z"/><path fill="#FD4E4E" d="m20.79 25.84 28.033-12.62-6.183-8.279a1.4 1.4 0 0 0-1.959-.284L12.316 25.84z"/><path stroke="#9A9A9A" stroke-linecap="round" stroke-linejoin="round" stroke-width="1.4" d="m35.5 6-5.357-3.826a2 2 0 0 0-2.8.48L11 26M62.5 26l-6.183-13.69a2 2 0 0 0-2.632-1.006L20.5 26"/><path stroke="#9A9A9A" stroke-linecap="round" stroke-linejoin="round" stroke-width="1.4" d="M14.5 21H10c-.833 0-2.5.5-2.5 2.5m0 0c0 2 1.667 2.5 2.5 2.5h54c1.333 0 4 .8 4 4v13.5m-60.5-20v32m23 21H64c1.333-.333 4-1.5 4-3.5V59.5"/><path stroke="#9A9A9A" stroke-linecap="round" stroke-linejoin="round" stroke-width="1.4" d="M64 21c2.833-.167 8.5 1 8.5 7v39.499c-.167 1.667-1.3 5-4.5 5"/><path fill="#9A9A9A" d="M31.466 40.202v-2.343a2.02 2.02 0 0 0-2.02-2.019H16.476a2.02 2.02 0 0 0-2.02 2.02v2.342a2.02 2.02 0 0 0 2.02 2.02h12.971a2.02 2.02 0 0 0 2.02-2.02m-15.917 0v-2.343a.927.927 0 0 1 .926-.925h3.345a3.81 3.81 0 0 0-1.846 3.268c0 .337.116.664.328.925h-1.827a.927.927 0 0 1-.926-.925m-1.832-8.266h3.89a.547.547 0 1 0 0-1.094h-3.89a.547.547 0 1 0 0 1.094m12.691 0a.547.547 0 0 0 0-1.094h-3.89a.547.547 0 0 0 0 1.094zm8.802-1.094h-3.89a.547.547 0 1 0 0 1.094h3.89a.547.547 0 1 0 0-1.094m8.802 0h-3.89a.547.547 0 0 0 0 1.094h3.89a.547.547 0 1 0 0-1.094m8.801 0h-3.89a.547.547 0 0 0 0 1.094h3.89a.547.547 0 0 0 0-1.094m8.802 0h-3.89a.547.547 0 1 0 0 1.094h3.89a.547.547 0 0 0 0-1.094M31.32 71.499h3.89a.547.547 0 1 0 0-1.094h-3.89a.547.547 0 1 0 0 1.094m12.692-1.094h-3.89a.547.547 0 0 0 0 1.094h3.89a.547.547 0 1 0 0-1.094m8.801 0h-3.89a.547.547 0 0 0 0 1.094h3.89a.547.547 0 1 0 0-1.094m8.802 0h-3.89a.547.547 0 1 0 0 1.094h3.89a.547.547 0 0 0 0-1.094"/><path fill="#E1EAF8" d="M56.168 17.48a2.224 2.224 0 0 1-1.519 3.071L39.94 24.05a1.67 1.67 0 0 1-2.025-1.294 1.58 1.58 0 0 1 .88-1.746l11.901-5.571a4.09 4.09 0 0 1 5.473 2.042"/><path fill="#FD4E4E" d="M18.648 62.92h-3.686c.147-.203.267-.4.345-.543a.41.41 0 0 1 .303-.205 2 2 0 0 1 .235-.005h2.005c.177 0 .21.001.236.005.172.026.245.086.29.18l.043.095c.05.115.127.29.23.473"/><path fill="#FD4E4E" fill-rule="evenodd" d="M17 79c6.627 0 12-5.373 12-12s-5.373-12-12-12S5 60.373 5 67s5.373 12 12 12m-1.184-17.833c-.13 0-.247 0-.358.016-.434.067-.82.328-1.03.717a4 4 0 0 1-.482.693q-.156.177-.284.267a.4.4 0 0 1-.115.06h-1.88a.5.5 0 1 0 0 1h10.666a.5.5 0 1 0 0-1h-2.199c-.194 0-.345-.097-.495-.301a2.7 2.7 0 0 1-.28-.522l-.079-.173c-.226-.477-.644-.68-1.043-.74-.11-.017-.227-.017-.358-.017zm-2.483 3.826a.5.5 0 0 0-.997.069l.282 4.068c.052.746.095 1.356.194 1.836.105.505.285.932.658 1.267.37.331.819.472 1.341.537.503.063 1.137.063 1.92.063h.538c.782 0 1.416 0 1.919-.063.522-.065.971-.206 1.341-.537.373-.335.553-.763.657-1.267.1-.48.143-1.09.195-1.836l.282-4.068a.5.5 0 1 0-.997-.07l-.28 4.033c-.055.79-.094 1.332-.179 1.738-.08.39-.191.587-.346.725-.157.141-.377.237-.798.29-.433.054-1.004.055-1.828.055h-.471c-.824 0-1.395 0-1.828-.055-.421-.053-.641-.149-.798-.29-.155-.138-.265-.335-.346-.725-.085-.406-.123-.948-.178-1.738zm2.64 1.444a.5.5 0 1 0-.995.103l.305 2.923a.5.5 0 1 0 .995-.104zm3.048.103a.5.5 0 1 0-.995-.103l-.305 2.922a.5.5 0 1 0 .995.104z" clip-rule="evenodd"/></svg>
